X:27
T:B027-  A-Begging we will go
S:via BBBM, form 'Choice Ayres', 5th bk, 1684
Q:1/4=80
L:1/4
M:C|
K:D
d|d/2A/2 A/2G/2 F E/2D/2|D/2E/2 F/2G/2 A2| d d/2d/2 dd/2d/2|\
e/2f/2 g/2e/2 f e/2d/2|e3/2 d/2 c (B/2c/2)|\
d c/2B/2 A/2A/2 G/2F/2|(G/2A/2) Bc3/2 d/2|d3|]

